src/32x32/places/folder-gruvbox-original-red-vmware.svg

<svg xmlns="http://www.w3.org/2000/svg" width="32" height="32" version="1">
 <rect style="opacity:0.2" width="28" height="18" x="2" y="11" rx="1.4" ry="1.4"/>
 <path style="fill:#9d0006" d="M 2,22.6 C 2,23.376 2.6244,24 3.4,24 H 28.6 C 29.376,24 30,23.376 30,22.6 V 7.4 C 30,6.6244 29.376,6 28.6,6 H 16 C 13.9,6 13.2,3 11.1,3 H 3.4 C 2.6244,3 2,3.6244 2,4.4"/>
 <rect style="opacity:0.2" width="28" height="18" x="2" y="9" rx="1.4" ry="1.4"/>
 <rect style="fill:#efd2b3" width="24" height="11" x="4" y="8" rx="1.4" ry="1.4"/>
 <rect style="fill:#fb4934" width="28" height="18" x="2" y="10" rx="1.4" ry="1.4"/>
 <path style="opacity:0.1;fill:#efd2b3" d="M 3.4004,3 C 2.6248,3 2,3.6248 2,4.4004 V 5.4004 C 2,4.6248 2.6248,4 3.4004,4 H 11.1 C 13.2,4 13.9,7 16,7 H 28.6 C 29.375,7 30,7.6248 30,8.4004 V 7.4004 C 30,6.6248 29.375,6 28.6,6 H 16 C 13.9,6 13.2,3 11.1,3 Z"/>
 <path style="fill:#442e2d" d="M 10.857422,13 C 10.382565,13 10,13.382565 10,13.857422 v 3.357422 c 0,0.474857 0.482174,0.857422 0.957031,0.857422 0.474857,0 1.056641,-0.382565 1.056641,-0.857422 V 16.12 L 13,17.205078 V 18 h 1 V 17.599609 C 14,17.267209 14.267209,17 14.599609,17 H 15 V 16 H 14.205078 L 13.02,15.013672 h 1.194844 c 0.474857,0 0.857422,-0.581784 0.857422,-1.056641 C 15.072266,13.482174 14.689701,13 14.214844,13 Z m 6.927734,0 c -0.474857,0 -0.857422,0.482174 -0.857422,0.957031 0,0.474857 0.382565,1.056641 0.857422,1.056641 H 18.98 L 17.794922,16 H 17 v 1 h 0.400391 C 17.732791,17 18,17.267209 18,17.599609 V 18 h 1 V 17.205078 L 19.986328,16.12 v 1.094844 c 0,0.474857 0.581784,0.857422 1.056641,0.857422 C 21.517826,18.072266 22,17.689701 22,17.214844 V 13.857422 C 22,13.382565 21.617435,13 21.142578,13 Z m 3.257813,6.927734 c -0.474857,0 -1.056641,0.382565 -1.056641,0.857422 V 21.98 L 19,20.794922 V 20 h -1 v 0.400391 C 18,20.732791 17.732791,21 17.400391,21 H 17 v 1 h 0.794922 L 18.88,22.986328 h -1.094844 c -0.474857,0 -0.857422,0.581784 -0.857422,1.056641 0,0.474857 0.382565,0.957031 0.857422,0.957031 h 3.357422 C 21.617435,25 22,24.617435 22,24.142578 v -3.357422 c 0,-0.474857 -0.482174,-0.857422 -0.957031,-0.857422 z M 13,20 v 1.142578 C 13,21.617435 13.382565,22 13.857422,22 H 15 V 21 H 14.599609 C 14.267209,21 14,20.732791 14,20.400391 V 20 Z"/>
</svg>

<?xml version="1.0" encoding="UTF-8"?>
<svg width="32" height="32" version="1" xmlns="http://www.w3.org/2000/svg">
 <rect x="2" y="11" width="28" height="18" rx="1.4" ry="1.4" opacity=".2"/>
 <path d="m2 22.6c0 0.776 0.6244 1.4 1.4 1.4h25.2c0.776 0 1.4-0.624 1.4-1.4v-15.2c0-0.7756-0.624-1.4-1.4-1.4h-12.6c-2.1 0-2.8-3-4.9-3h-7.7c-0.7756 0-1.4 0.6244-1.4 1.4" fill="#9d0006"/>
 <rect x="2" y="9" width="28" height="18" rx="1.4" ry="1.4" opacity=".2"/>
 <rect x="4" y="8" width="24" height="11" rx="1.4" ry="1.4" fill="#efd2b3"/>
 <rect x="2" y="10" width="28" height="18" rx="1.4" ry="1.4" fill="#fb4934"/>
 <path d="m3.4004 3c-0.7756 0-1.4004 0.6248-1.4004 1.4004v1c0-0.7756 0.6248-1.4004 1.4004-1.4004h7.6996c2.1 0 2.8 3 4.9 3h12.6c0.775 0 1.4 0.6248 1.4 1.4004v-1c0-0.7756-0.625-1.4004-1.4-1.4004h-12.6c-2.1 0-2.8-3-4.9-3z" fill="#efd2b3" opacity=".1"/>
 <path d="m10.857 13c-0.47486 0-0.85742 0.38256-0.85742 0.85742v3.3574c0 0.47486 0.48217 0.85742 0.95703 0.85742s1.0566-0.38256 1.0566-0.85742v-1.0948l0.98633 1.0851v0.79492h1v-0.40039c0-0.3324 0.26721-0.59961 0.59961-0.59961h0.40039v-1h-0.79492l-1.1851-0.98633h1.1948c0.47486 0 0.85742-0.58178 0.85742-1.0566s-0.38256-0.95703-0.85742-0.95703zm6.9277 0c-0.47486 0-0.85742 0.48217-0.85742 0.95703s0.38256 1.0566 0.85742 1.0566h1.1948l-1.1851 0.98633h-0.79492v1h0.40039c0.3324 0 0.59961 0.26721 0.59961 0.59961v0.40039h1v-0.79492l0.98633-1.0851v1.0948c0 0.47486 0.58178 0.85742 1.0566 0.85742s0.95703-0.38256 0.95703-0.85742v-3.3574c0-0.47486-0.38256-0.85742-0.85742-0.85742zm3.2578 6.9277c-0.47486 0-1.0566 0.38256-1.0566 0.85742v1.1948l-0.98633-1.1851v-0.79492h-1v0.40039c0 0.3324-0.26721 0.59961-0.59961 0.59961h-0.40039v1h0.79492l1.0851 0.98633h-1.0948c-0.47486 0-0.85742 0.58178-0.85742 1.0566s0.38256 0.95703 0.85742 0.95703h3.3574c0.47486 0 0.85742-0.38256 0.85742-0.85742v-3.3574c0-0.47486-0.48217-0.85742-0.95703-0.85742zm-8.043 0.072266v1.1426c0 0.47486 0.38256 0.85742 0.85742 0.85742h1.1426v-1h-0.40039c-0.3324 0-0.59961-0.26721-0.59961-0.59961v-0.40039z" fill="#442e2d"/>
</svg>
